X: 1
T: Perthshire Volunteers
R: strathspey
Z: 2006 John Chambers <jc:trillian.mit.edu>
N: printed MS from Sylvia Miskoe (2012)
O: Athole
B: Athole
M: C
L: 1/16
K: A
A2 \
| "A"E3A cde2 c4 A3c | "Bm"d3B dcBA "E7"GB3 B3d \
| "A"c3A cde2 "F#m"c4 A3c | "E7"dB3 e3d "A"cA3 A2 |]
B2 \
| "A"E3A cde2 "F#m"c4 A3c | "Bm"d3B dcBA "E7"GB3 B3d \
| "A"c3A cde2 "F#m"c4 A3c | "E7"dB3 e3d "A"cA3 A2 |]
e2 \
| "A"a3e agfe a4 e3c | "Bm"d3B dcBA "E7"GB3 B3g \
| "A"a3e agfe a4 e3c | "E7"d3B dcBA "A"EA3 A3 |]
e \
| "A"a3e agfe "F#m"a3e c3A | "Bm"d3B c3A "E7"GB3 B3d \
| "A"ce3 "D"df3 "A"e3a "E7"gb3 | "D"agfe "E7"f3g "A"aA3 A2 |]
